build/img/icon-feature_deal.svg

<svg width="14" height="16" viewBox="0 0 14 16" fill="none" xmlns="http://www.w3.org/2000/svg">
<path d="M12.6327 1.42285C12.6327 1.42285 9.7611 0.800049 6.9999 0.800049C4.2387 0.800049 1.3671 1.42285 1.3671 1.42285L0.399902 2.60005V6.20005C0.399902 12.4388 6.4125 15.047 6.4125 15.047H7.5867C7.5873 15.047 13.5999 12.4388 13.5999 6.20005V2.60005L12.6327 1.42285ZM11.0241 5.42425L6.4881 9.96025C6.3753 10.073 6.2229 10.136 6.0639 10.136C5.9049 10.136 5.7519 10.073 5.6397 9.96025L3.5679 7.88845C3.3333 7.65385 3.3333 7.27465 3.5679 7.04005C3.8025 6.80545 4.1817 6.80545 4.4163 7.04005L6.0639 8.68765L10.1757 4.57585C10.4103 4.34125 10.7895 4.34125 11.0241 4.57585C11.2587 4.81045 11.2587 5.18965 11.0241 5.42425Z"/>
</svg>

<svg width="14" height="16" fill="none" xmlns="http://www.w3.org/2000/svg"><path d="M12.633 1.423S9.76.8 7 .8s-5.633.623-5.633.623L.4 2.6v3.6c0 6.239 6.012 8.847 6.012 8.847h1.175S13.6 12.439 13.6 6.2V2.6l-.967-1.177zm-1.609 4.001L6.488 9.96a.6.6 0 01-.848 0L3.568 7.888a.6.6 0 11.848-.848l1.648 1.648 4.112-4.112a.6.6 0 11.848.848z"/></svg>
